assets/infinity.svg

<svg xmlns="http://www.w3.org/2000/svg" fill="none" viewBox="0 0 28 14">
  <path fill="#2A2238" d="m9.93964 3.13628 2.91396 3.4268-2.9122 3.4268c-.67573.66642-1.53341 1.11812-2.46518 1.29842-.93178.1803-1.89606.0811-2.77161-.2851-.87555-.3662-1.62328-.9831-2.14918-1.77316-.5259-.79003-.80649-1.7179-.80649-2.66696s.28059-1.87694.80649-2.66697 1.27363-1.40694 2.14918-1.77317c.87555-.36623 1.83983-.46543 2.77161-.28513.93177.1803 1.78945.63206 2.46518 1.29847h-.00176ZM14 5.21196l-2.7722-3.26404-.0245-.02625C10.2853 1.00398 9.11589.379081 7.84283.125984 6.56976-.127113 5.25024.00295838 4.05109.499753 2.85195.996547 1.82704 1.83775 1.10596 2.91701.384874 3.99626 0 5.2651 0 6.56308s.384874 2.56681 1.10596 3.64602c.72108 1.0793 1.74599 1.9205 2.94513 2.4173 1.19915.4968 2.51867.6269 3.79174.3738 1.27306-.2531 2.44247-.878 3.36047-1.7957l.0245-.0263L14 7.9142l2.7722 3.264.0245.0263c.918.9177 2.0874 1.5426 3.3605 1.7957 1.273.2531 2.5926.123 3.7917-.3738 1.1992-.4968 2.2241-1.338 2.9451-2.4173C27.6151 9.12989 28 7.86106 28 6.56308s-.3849-2.56682-1.106-3.64607C26.173 1.83775 25.1481.996547 23.9489.499753c-1.1991-.49679462-2.5187-.626866-3.7917-.373769-1.2731.253097-2.4425.877996-3.3605 1.795686l-.0245.02625L14 5.21196Zm1.1481 1.35112 2.9105-3.4268c.6757-.66641 1.5334-1.11817 2.4652-1.29847.9318-.1803 1.896-.0811 2.7716.28513.8755.36623 1.6233.98314 2.1492 1.77317.5259.79003.8065 1.71791.8065 2.66697s-.2806 1.87693-.8065 2.66696c-.5259.79006-1.2737 1.40696-2.1492 1.77316-.8756.3662-1.8398.4654-2.7716.2851-.9318-.1803-1.7895-.632-2.4652-1.29842l-2.9105-3.4268Z"/>
</svg>

<svg width="28" height="14" viewBox="0 0 28 14" fill="none" xmlns="http://www.w3.org/2000/svg">
<path d="M9.93964 3.13628L12.8536 6.56308L9.9414 9.98988C9.26567 10.6563 8.40799 11.108 7.47622 11.2883C6.54444 11.4686 5.58016 11.3694 4.70461 11.0032C3.82906 10.637 3.08133 10.0201 2.55543 9.23004C2.02953 8.44001 1.74894 7.51214 1.74894 6.56308C1.74894 5.61402 2.02953 4.68614 2.55543 3.89611C3.08133 3.10608 3.82906 2.48917 4.70461 2.12294C5.58016 1.75671 6.54444 1.65751 7.47622 1.83781C8.40799 2.01811 9.26567 2.46987 9.9414 3.13628H9.93964ZM14 5.21196L11.2278 1.94792L11.2033 1.92167C10.2853 1.00398 9.11589 0.379081 7.84283 0.125984C6.56976 -0.127113 5.25024 0.00295838 4.05109 0.499753C2.85195 0.996547 1.82704 1.83775 1.10596 2.91701C0.384874 3.99626 0 5.2651 0 6.56308C0 7.86106 0.384874 9.12989 1.10596 10.2091C1.82704 11.2884 2.85195 12.1296 4.05109 12.6264C5.25024 13.1232 6.56976 13.2533 7.84283 13.0002C9.11589 12.7471 10.2853 12.1222 11.2033 11.2045L11.2278 11.1782L14 7.9142L16.7722 11.1782L16.7967 11.2045C17.7147 12.1222 18.8841 12.7471 20.1572 13.0002C21.4302 13.2533 22.7498 13.1232 23.9489 12.6264C25.1481 12.1296 26.173 11.2884 26.894 10.2091C27.6151 9.12989 28 7.86106 28 6.56308C28 5.2651 27.6151 3.99626 26.894 2.91701C26.173 1.83775 25.1481 0.996547 23.9489 0.499753C22.7498 0.00295838 21.4302 -0.127113 20.1572 0.125984C18.8841 0.379081 17.7147 1.00398 16.7967 1.92167L16.7722 1.94792L14 5.21196ZM15.1481 6.56308L18.0586 3.13628C18.7343 2.46987 19.592 2.01811 20.5238 1.83781C21.4556 1.65751 22.4198 1.75671 23.2954 2.12294C24.1709 2.48917 24.9187 3.10608 25.4446 3.89611C25.9705 4.68614 26.2511 5.61402 26.2511 6.56308C26.2511 7.51214 25.9705 8.44001 25.4446 9.23004C24.9187 10.0201 24.1709 10.637 23.2954 11.0032C22.4198 11.3694 21.4556 11.4686 20.5238 11.2883C19.592 11.108 18.7343 10.6563 18.0586 9.98988L15.1481 6.56308Z" fill="#2A2238"/>
</svg>
